X: 16
M:6/8
L:1/8
K:G
uD|v(G2.c) BGB|(c2.c) (c2.A)|(G2.c) "SEGUE."BGB|A2A A2B|\
ud|v(g2.g) gdB|(c2.c) (c2.e)|"SEGUE."g2g gdB|A2A A2d|\
vg2g gdB|c2c c2A|BGB cAF|G2G G2:|


